icon/pk/smiling-face-with-squinting-eyes.svg

<svg viewBox="0 0 48 48" fill="none" xmlns="http://www.w3.org/2000/svg" height="1em" width="1em">
  <path d="M24 44C35.0457 44 44 35.0457 44 24C44 12.9543 35.0457 4 24 4C12.9543 4 4 12.9543 4 24C4 35.0457 12.9543 44 24 44Z" fill="#2F88FF" stroke="black" stroke-width="4" stroke-linejoin="round"/>
  <path d="M31 31C31 31 29 35 24 35C19 35 17 31 17 31" stroke="white" stroke-width="4" stroke-linecap="round" stroke-linejoin="round"/>
  <path d="M21 21C21 21 20 17 17 17C14 17 13 21 13 21" stroke="white" stroke-width="4" stroke-linecap="round" stroke-linejoin="round"/>
  <path d="M35 21C35 21 34 17 31 17C28 17 27 21 27 21" stroke="white" stroke-width="4" stroke-linecap="round" stroke-linejoin="round"/>
</svg>

<svg width="48" height="48" fill="none" xmlns="http://www.w3.org/2000/svg"><path d="M24 44c11.046 0 20-8.954 20-20S35.046 4 24 4 4 12.954 4 24s8.954 20 20 20Z" fill="#2F88FF" stroke="#000" stroke-width="4" stroke-linejoin="round"/><path d="M31 31s-2 4-7 4-7-4-7-4M21 21s-1-4-4-4-4 4-4 4M35 21s-1-4-4-4-4 4-4 4" stroke="#fff" stroke-width="4" stroke-linecap="round" stroke-linejoin="round"/></svg>
